X:122
T:Loch Torridon
M:4/4
L:1/8
K:Am
"Am" EA A/2B/2c/2d/2 ed c>A|"G"BG G/2^F/2G/2A/2 B(A/2G/2) ED|"Am"DA A/2B/2c/2d/2 ed e>a|"Em"ge "Am"e/2d/2"G"c/2B/2 "Am"(cA) A2:|
|:"Am"ea a(g/2a/2) "G"ba g>e|"G"d>e ga "Em"e/2g/2g/2a/2 g(e/2d/2)|"Am"ea a(g/2a/2) "G"ba g>e|"G"d/2e/2g/2a/2 "Em"g/2e/2"G"d/2B/2 "Am"(cA) A2:|
